!!!OTL: Die Hartherzige" S FEINE MOIDAL GING NACHTS INS BETTE
!!!ARE: Europa, Mitteleuropa, Deutschland, Boehmen
!!!SCT: Z1226
!!!YEM: Copyright 1995, estate of Helmut Schaffrath.
**kern
*ICvox
*Ivox
*M3/4
*k[f#]
*G:
{8d
8d
=1
4.g
8b
4g
=2
4a
4g
8a
8b
=3
8a
8f#
4d}
{8d
8d
=4
4.a
8cc
4a
=5
4cc
4a
4dd
=6
8b
8a
4g}
{8b
8cc
=7
4.dd
8cc
4dd
=8
4cc
4ee}
{8a
8b
=9
4.cc
8b
4cc
=10
4b
4dd}
{4d
=11
4.g
8f#
8g
8f#
=12
4a
4g
8a
8b
=13
4a
4g}
{4g
=14
4.b
8g
8b
8cc
=15
4.dd
8g
8a
8b
=16
2g}
==
!!!AGN: Liebes - Lied
!!!ONB: ESAC (Essen Associative Code) Database: ZUCCAL
!!!AMT: simple triple
!!!AIN: vox
!!!EED: Helmut Schaffrath
!!!EEV: 1.0
*-
